X: 1
T: di Goldene Khasene #2
T: the Golden Wedding #2
R: freylach
Z: John Chambers <jc@trillian.mit.edu>
D: Di bostoner Klezmer: "Nakhes fun Klezmer"
D: H Kandel ...
N: Handwritten MS by ??; Transcription by S.Rauch
N: Modified slightly for contra dance.
M: 4/4
L: 1/8
K: Em
   zB,EG \
| "Em"B2e2 ^de "(E7)"Bc | "Am"A4 zcB^A \
| "B7"B4 zAGA | "Em"B4 zB,EG \
| "Em"B2e2 ^de "(E7)"Bc | "Am"A4 z2A^A |\
| "B7"B2 G2 AB/A/ GF | "Em"E4 :|
|: z2"(B7)"B2 \
| "Em"g2 fe g2 fe | B4 z2B_B \
| "Am"A2 A2 A>B c/B/A | "Em"B4 z2"(B7)"ef |\
| g2 fe g2 "(E7)"fe | "Am"c4 zABc \
| "B7"BA AG GF FE | "Em"E4 :|
|: z2"(B7)"B2 \
| "Em"g/f/e g/f/e [eB][eB] [e2B2] | g/f/e g/f/e "Am"AA A2 |\
| c2c2- cB dc | "Em"B4 z2"E7"z2 |\
| "Am"AB c2 FG A2 | "Em"GA B2 EF GB |
| "B7"BA AG GF FE | "Em"G4 |\
| "Am"AB c2 FG A2 | "Em"GA B2 EF GB \
| "B7"BA AG GF FE | "Em"E4 |]
